rospo-icon-theme-classic-common/22x22/apps/librecad.svg

<svg height="22" viewBox="0 0 22 22" width="22" xmlns="http://www.w3.org/2000/svg"><circle cx="11" cy="11.5" opacity=".2" r="10"/><circle cx="11" cy="11" fill="#8bc34a" r="10"/><path d="m11 1a10 10 0 0 0 -10 10 10 10 0 0 0  .01075.291 10 10 0 0 1 9.98925-9.791 10 10 0 0 1 9.9895 9.709 10 10 0 0 0  .0105-.209 10 10 0 0 0 -10-10z" fill="#fff" opacity=".2"/><circle cx="11" cy="11.5" opacity=".2" r="7"/><circle cx="11" cy="11" fill="#fff" r="7"/><path d="m1.0498047 10.5a10 10 0 0 0 -.0498047 1 10 10 0 0 0  .060547 1h19.889648a10 10 0 0 0  .0498-1 10 10 0 0 0 -.06055-1z" opacity=".2"/><path d="m1.0498047 10a10 10 0 0 0 -.0498047 1 10 10 0 0 0  .0605469 1h19.8896481a10 10 0 0 0  .049805-1 10 10 0 0 0 -.060547-1z" fill="#4f4f4f"/><rect height="6" opacity=".2" rx="1" width="6" y="8.5"/><rect fill="#4f4f4f" height="6" rx="1" width="6" y="8"/></svg>

<svg xmlns="http://www.w3.org/2000/svg" width="22" height="22" version="1.1" viewBox="0 0 22 22">
 <circle style="opacity:0.2" cx="11" cy="11.5" r="10"/>
 <circle style="fill:#8bc34a" cx="11" cy="11" r="10"/>
 <path style="opacity:0.2;fill:#ffffff" d="M 11,1 A 10,10 0 0 0 1,11 10,10 0 0 0 1.01075,11.291 10,10 0 0 1 11,1.5 10,10 0 0 1 20.9895,11.209 10,10 0 0 0 21,11 10,10 0 0 0 11,1 Z"/>
 <circle style="opacity:0.2" cx="11" cy="11.5" r="7"/>
 <circle style="fill:#ffffff" cx="11" cy="11" r="7"/>
 <path d="M 1.0498047,10.5 A 10,10 0 0 0 1,11.5 a 10,10 0 0 0 0.060547,1 h 19.889648 a 10,10 0 0 0 0.0498,-1 10,10 0 0 0 -0.06055,-1 z" style="opacity:0.2"/>
 <path style="fill:#4f4f4f" d="M 1.0498047,10 A 10,10 0 0 0 1,11 10,10 0 0 0 1.0605469,12 H 20.950195 A 10,10 0 0 0 21,11 10,10 0 0 0 20.939453,10 Z"/>
 <rect width="6" height="6" x="0" y="8.5" rx="1" ry="1" style="opacity:0.2"/>
 <rect style="fill:#4f4f4f" width="6" height="6" x="0" y="8" rx="1" ry="1"/>
</svg>
